Graphics/X-Mouse Controls 02.svg

<svg data-name="Layer 2" xmlns="http://www.w3.org/2000/svg" viewBox="0 0 96 96">
    <path fill="#fff" d="M37 37h54v54H37z"/>
    <path d="M86 42v44H42V42h44m10-10H32v64h64V32z"/>
    <path fill="#f2f2f2" d="M5 5h54v54H5z"/>
    <path d="M54 10v44H10V10h44M64 0H0v64h64V0z" fill="#999"/>
</svg>

<svg id="Layer_2" data-name="Layer 2" xmlns="http://www.w3.org/2000/svg" viewBox="0 0 96 96"><defs><style>.cls-1{fill:#fff;}.cls-2{fill:#f2f2f2;}.cls-3{fill:#999;}</style></defs><title>X-Mouse Controls</title><rect class="cls-1" x="37" y="37" width="54" height="54"/><path d="M86,42V86H42V42H86M96,32H32V96H96V32Z"/><rect class="cls-2" x="5" y="5" width="54" height="54"/><path class="cls-3" d="M54,10V54H10V10H54M64,0H0V64H64V0Z"/></svg>
